X:1
T:North Wind
L:1/8
M:4/4
I:linebreak $
K:C
V:1 treble 
V:1
|:"Am" ABce A2 AB | cg^fe"D" defd |1"Am" ABce A2 Ac |"G" BAGA BGAB :|2"Am" ec"G"dB"F" cA"Em"BG |$ %5
"F" EG"G" AB"Am" A2 AB |:"Am" ABce A2 AB | cg^fe"D" defd |1"Am" ABce A2 Ac |"G" BAGA"Em" BGAB :|2$ %10
"Am" ec"G"dB"F" cA"Em"BG |"F" EG"G" Ac"Am" A2 AB |:"Am" cedc"G" BGcd |"C" egfe"G" d2 cd |1 %14
"C" egfe"G" dcBA |$"Em" GB"G"AG"Am" A2 AB :|2"C" egfe"G" dcBG |"F" EG"G" Ac"Am" A4 || %18
